X: 30119
T: Old Blackthorn, The
R: reel
M: 4/4
K: Dmajor
fe|:d2 FB AFEF|D2 FA B2Bc|dF ~F2 AF ~F2|GBAF D2 fe|
d2 FB AFEF|D2 FA BABc|dF ~F2 AF ~F2|GBAF D4:|
|:d2fd eg ec|A2 cA eAcA|defg a2 ba|afeg fddc|
defd eg ec|A2 cA eAcA|defg a2 ba|afef d4:|

